src/assets/icons/light/files.svg

<?xml version="1.0" encoding="UTF-8" standalone="no"?>
<svg
   width="168.61211"
   height="150.82608"
   viewBox="0 0 168.61211 150.82608"
   fill="none"
   version="1.1"
   id="svg269"
   sodipodi:docname="files.svg"
   inkscape:version="1.1.2 (b8e25be8, 2022-02-05)"
   xmlns:inkscape="http://www.inkscape.org/namespaces/inkscape"
   xmlns:sodipodi="http://sodipodi.sourceforge.net/DTD/sodipodi-0.dtd"
   xmlns="http://www.w3.org/2000/svg"
   xmlns:svg="http://www.w3.org/2000/svg">
  <sodipodi:namedview
     id="namedview271"
     pagecolor="#ffffff"
     bordercolor="#666666"
     borderopacity="1.0"
     inkscape:pageshadow="2"
     inkscape:pageopacity="0.0"
     inkscape:pagecheckerboard="0"
     showgrid="false"
     fit-margin-top="0"
     fit-margin-left="0"
     fit-margin-right="0"
     fit-margin-bottom="0"
     inkscape:zoom="2.1836959"
     inkscape:cx="59.761068"
     inkscape:cy="121.58286"
     inkscape:window-width="1312"
     inkscape:window-height="969"
     inkscape:window-x="0"
     inkscape:window-y="44"
     inkscape:window-maximized="0"
     inkscape:current-layer="g231" />
  <g
     filter="url(#filter0_d_1795_12560)"
     id="g216"
     transform="translate(-64.065949,-32.086949)">
    <path
       d="m 144.301,37.0461 c 0.575,-3.2634 3.687,-5.4424 6.951,-4.867 l 42,7.4058 c 4.674,0.8241 8.902,3.2833 11.93,6.9382 l 22.898,27.6451 c 3.743,4.5186 5.313,10.4528 4.294,16.231 l -13.675,77.5548 c -0.575,3.263 -3.687,5.442 -6.95,4.867 l -82.724,-14.587 c -3.264,-0.575 -5.443,-3.687 -4.867,-6.95 z"
       fill="#fcfcfd"
       id="path203" />
    <path
       d="m 211.887,172.033 -82.723,-14.586 c -2.829,-0.499 -4.717,-3.196 -4.218,-6.024 L 145.089,37.185 c 0.498,-2.8283 3.195,-4.7168 6.024,-4.2181 l 42,7.4059 c 4.487,0.7911 8.546,3.1519 11.452,6.6606 l 22.899,27.6451 c 3.593,4.3379 5.1,10.0347 4.122,15.5818 l -13.675,77.5547 c -0.498,2.828 -3.195,4.717 -6.024,4.218 z"
       stroke="#e5e5eb"
       stroke-width="1.6"
       id="path205" />
    <path
       d="m 197.44,42.8141 c -0.526,-0.8051 -1.29,-1.5762 -2.224,-1.9752 l 0.012,-0.0723 c 3.315,0.7625 6.296,2.5951 8.475,5.226 l 24.558,29.6476 c 2.917,3.5218 4.234,8.0858 3.662,12.599 l -0.074,-0.013 c -0.055,-1.0142 -0.518,-1.9963 -1.095,-2.7658 -0.722,-0.9639 -1.779,-1.8027 -2.844,-1.9906 l -29.939,-5.2789 c -2.828,-0.4987 -4.716,-3.1957 -4.218,-6.024 l 4.585,-25.9989 c 0.188,-1.0654 -0.239,-2.3455 -0.898,-3.3539 z"
       fill="#f2f4f8"
       stroke="#e5e5eb"
       stroke-width="1.6"
       id="path207" />
    <mask
       id="path-4-inside-1_1795_12560"
       fill="#ffffff">
      <path
         d="m 129.025,158.234 82.724,14.587 c 3.263,0.575 6.375,-1.604 6.95,-4.867 l 0.695,-3.939 c -0.575,3.263 -3.687,5.442 -6.951,4.867 l -82.724,-14.587 c -3.263,-0.575 -5.442,-3.687 -4.866,-6.951 l -0.695,3.94 c -0.575,3.263 1.604,6.375 4.867,6.95 z"
         id="path209" />
    </mask>
    <path
       d="m 129.025,158.234 82.724,14.587 c 3.263,0.575 6.375,-1.604 6.95,-4.867 l 0.695,-3.939 c -0.575,3.263 -3.687,5.442 -6.951,4.867 l -82.724,-14.587 c -3.263,-0.575 -5.442,-3.687 -4.866,-6.951 l -0.695,3.94 c -0.575,3.263 1.604,6.375 4.867,6.95 z"
       fill="#e5e5eb"
       id="path212" />
    <path
       d="m 212.443,168.882 -82.724,-14.587 -1.389,7.879 82.724,14.586 z m -82.724,-14.587 c -1.087,-0.192 -1.814,-1.229 -1.622,-2.317 l -7.878,-1.389 c -0.959,5.439 2.672,10.626 8.111,11.585 z m 85.041,12.964 c -0.192,1.088 -1.229,1.814 -2.317,1.623 l -1.389,7.878 c 5.439,0.959 10.626,-2.673 11.585,-8.111 z m -1.622,-2.317 -82.724,-14.586 -1.389,7.878 82.724,14.587 z m -82.724,-14.586 c -1.088,-0.192 -1.814,-1.229 -1.622,-2.317 l -7.879,-1.389 c -0.959,5.439 2.673,10.625 8.112,11.584 z m 85.041,12.964 c -0.192,1.088 -1.229,1.814 -2.317,1.622 l -1.389,7.879 c 5.439,0.959 10.625,-2.673 11.584,-8.112 z m -87.358,-11.342 0.695,-3.939 -7.879,-1.389 -0.694,3.939 z m 94.542,16.671 0.694,-3.94 -7.878,-1.389 -0.695,3.939 z"
       fill="#e5e5eb"
       mask="url(#path-4-inside-1_1795_12560)"
       id="path214" />
  </g>
  <g
     filter="url(#filter1_d_1795_12560)"
     id="g231"
     transform="translate(-64.065949,-32.086949)">
    <path
       d="m 64.1581,63.7162 c -0.5754,-3.2633 1.6036,-6.3753 4.867,-6.9507 l 42.0009,-7.4058 c 4.673,-0.8241 9.488,0.0406 13.583,2.4396 l 30.973,18.146 c 5.062,2.966 8.567,8.0054 9.586,13.7836 l 13.675,77.5551 c 0.575,3.263 -1.604,6.375 -4.867,6.95 l -82.724,14.587 c -3.2633,0.575 -6.3753,-1.604 -6.9507,-4.867 z"
       fill="#fcfcfd"
       id="path218" />
    <path
       d="m 173.837,167.447 -82.7239,14.586 c -2.8282,0.499 -5.5253,-1.39 -6.024,-4.218 L 64.9459,63.5773 c -0.4987,-2.8282 1.3898,-5.5253 4.2181,-6.024 l 42.001,-7.4058 c 4.486,-0.7911 9.108,0.039 13.039,2.342 l 30.973,18.1461 c 4.86,2.8473 8.225,7.6851 9.203,13.2322 l 13.675,77.5552 c 0.499,2.828 -1.39,5.525 -4.218,6.024 z"
       stroke="#e5e5eb"
       stroke-width="1.6"
       id="path220" />
    <path
       d="m 116.065,50.9617 c -0.769,-0.5767 -1.751,-1.0398 -2.765,-1.0952 l -0.013,-0.0723 c 3.375,-0.4173 6.803,0.2853 9.751,2.0122 l 33.217,19.4605 c 3.945,2.3116 6.744,6.15 7.75,10.5866 l -0.074,0.013 c -0.398,-0.9341 -1.17,-1.6986 -1.975,-2.2244 -1.008,-0.6587 -2.288,-1.0855 -3.354,-0.8976 l -29.938,5.2789 c -2.828,0.4987 -5.525,-1.3898 -6.024,-4.2181 l -4.584,-25.9989 c -0.188,-1.0654 -1.027,-2.1224 -1.991,-2.8447 z"
       fill="#f2f4f8"
       stroke="#e5e5eb"
       stroke-width="1.6"
       id="path222" />
    <mask
       id="path-9-inside-2_1795_12560"
       fill="#ffffff">
      <path
         d="m 91.2518,182.821 82.7242,-14.587 c 3.263,-0.575 5.442,-3.687 4.867,-6.95 l -0.695,-3.94 c 0.575,3.264 -1.604,6.376 -4.867,6.951 l -82.7238,14.587 c -3.2634,0.575 -6.3753,-1.604 -6.9508,-4.867 l 0.6946,3.939 c 0.5755,3.263 3.6874,5.442 6.9508,4.867 z"
         id="path224" />
    </mask>
    <path
       d="m 91.2518,182.821 82.7242,-14.587 c 3.263,-0.575 5.442,-3.687 4.867,-6.95 l -0.695,-3.94 c 0.575,3.264 -1.604,6.376 -4.867,6.951 l -82.7238,14.587 c -3.2634,0.575 -6.3753,-1.604 -6.9508,-4.867 l 0.6946,3.939 c 0.5755,3.263 3.6874,5.442 6.9508,4.867 z"
       fill="#e5e5eb"
       id="path227" />
    <path
       d="m 173.281,164.295 -82.7238,14.587 1.3892,7.878 82.7236,-14.586 z m -82.7238,14.587 c -1.0878,0.191 -2.1251,-0.535 -2.3169,-1.623 l -7.8785,1.389 c 0.959,5.439 6.1456,9.071 11.5846,8.112 z m 84.3458,-16.904 c 0.192,1.088 -0.534,2.125 -1.622,2.317 l 1.389,7.879 c 5.439,-0.959 9.071,-6.146 8.112,-11.585 z m -2.317,-1.622 -82.7234,14.586 1.3892,7.879 82.7242,-14.587 z m -82.7234,14.586 c -1.0878,0.192 -2.1251,-0.534 -2.3169,-1.622 l -7.8785,1.389 c 0.959,5.439 6.1456,9.071 11.5846,8.112 z m 84.3464,-16.903 c 0.192,1.088 -0.535,2.125 -1.623,2.317 l 1.39,7.878 c 5.439,-0.959 9.07,-6.145 8.111,-11.584 z m -85.9687,19.22 -0.6946,-3.939 -7.8785,1.389 0.6946,3.939 z m 94.5417,-16.67 -0.695,-3.939 -7.878,1.389 0.694,3.939 z"
       fill="#e5e5eb"
       mask="url(#path-9-inside-2_1795_12560)"
       id="path229" />
  </g>
  <defs
     id="defs267">
    <filter
       id="filter0_d_1795_12560"
       x="59.116199"
       y="-0.86279303"
       width="244.769"
       height="270.72601"
       filterUnits="userSpaceOnUse"
       color-interpolation-filters="sRGB">
      <feFlood
         flood-opacity="0"
         result="BackgroundImageFix"
         id="feFlood233" />
      <feColorMatrix
         in="SourceAlpha"
         type="matrix"
         values="0 0 0 0 0 0 0 0 0 0 0 0 0 0 0 0 0 0 127 0"
         result="hardAlpha"
         id="feColorMatrix235" />
      <feOffset
         dy="32"
         id="feOffset237" />
      <feGaussianBlur
         stdDeviation="32"
         id="feGaussianBlur239" />
      <feComposite
         in2="hardAlpha"
         operator="out"
         id="feComposite241" />
      <feColorMatrix
         type="matrix"
         values="0 0 0 0 0 0 0 0 0 0 0 0 0 0 0 0 0 0 0.02 0"
         id="feColorMatrix243" />
      <feBlend
         mode="normal"
         in2="BackgroundImageFix"
         result="effect1_dropShadow_1795_12560"
         id="feBlend245" />
      <feBlend
         mode="normal"
         in="SourceGraphic"
         in2="effect1_dropShadow_1795_12560"
         result="shape"
         id="feBlend247" />
    </filter>
    <filter
       id="filter1_d_1795_12560"
       x="-0.883789"
       y="9.1372099"
       width="244.769"
       height="270.72601"
       filterUnits="userSpaceOnUse"
       color-interpolation-filters="sRGB">
      <feFlood
         flood-opacity="0"
         result="BackgroundImageFix"
         id="feFlood250" />
      <feColorMatrix
         in="SourceAlpha"
         type="matrix"
         values="0 0 0 0 0 0 0 0 0 0 0 0 0 0 0 0 0 0 127 0"
         result="hardAlpha"
         id="feColorMatrix252" />
      <feOffset
         dy="32"
         id="feOffset254" />
      <feGaussianBlur
         stdDeviation="32"
         id="feGaussianBlur256" />
      <feComposite
         in2="hardAlpha"
         operator="out"
         id="feComposite258" />
      <feColorMatrix
         type="matrix"
         values="0 0 0 0 0 0 0 0 0 0 0 0 0 0 0 0 0 0 0.02 0"
         id="feColorMatrix260" />
      <feBlend
         mode="normal"
         in2="BackgroundImageFix"
         result="effect1_dropShadow_1795_12560"
         id="feBlend262" />
      <feBlend
         mode="normal"
         in="SourceGraphic"
         in2="effect1_dropShadow_1795_12560"
         result="shape"
         id="feBlend264" />
    </filter>
  </defs>
</svg>

<svg width="297" height="279" viewBox="0 0 297 279" fill="none" xmlns="http://www.w3.org/2000/svg">
<g filter="url(#filter0_d_1795_12560)">
<path d="M144.301 37.0461C144.876 33.7827 147.988 31.6037 151.252 32.1791L193.252 39.5849C197.926 40.409 202.154 42.8682 205.182 46.5231L228.08 74.1682C231.823 78.6868 233.393 84.621 232.374 90.3992L218.699 167.954C218.124 171.217 215.012 173.396 211.749 172.821L129.025 158.234C125.761 157.659 123.582 154.547 124.158 151.284L144.301 37.0461Z" fill="#FCFCFD"/>
<path d="M211.887 172.033L129.164 157.447C126.335 156.948 124.447 154.251 124.946 151.423L145.089 37.185C145.587 34.3567 148.284 32.4682 151.113 32.9669L193.113 40.3728C197.6 41.1639 201.659 43.5247 204.565 47.0334L227.464 74.6785C231.057 79.0164 232.564 84.7132 231.586 90.2603L217.911 167.815C217.413 170.643 214.716 172.532 211.887 172.033Z" stroke="#E5E5EB" stroke-width="1.6"/>
<path d="M197.44 42.8141C196.914 42.009 196.15 41.2379 195.216 40.8389L195.228 40.7666C198.543 41.5291 201.524 43.3617 203.703 45.9926L228.261 75.6402C231.178 79.162 232.495 83.726 231.923 88.2392L231.849 88.2262C231.794 87.212 231.331 86.2299 230.754 85.4604C230.032 84.4965 228.975 83.6577 227.91 83.4698L197.971 78.1909C195.143 77.6922 193.255 74.9952 193.753 72.1669L198.338 46.168C198.526 45.1026 198.099 43.8225 197.44 42.8141Z" fill="#F2F4F8" stroke="#E5E5EB" stroke-width="1.6"/>
<mask id="path-4-inside-1_1795_12560" fill="white">
<path d="M129.025 158.234L211.749 172.821C215.012 173.396 218.124 171.217 218.699 167.954L219.394 164.015C218.819 167.278 215.707 169.457 212.443 168.882L129.719 154.295C126.456 153.72 124.277 150.608 124.853 147.344L124.158 151.284C123.583 154.547 125.762 157.659 129.025 158.234Z"/>
</mask>
<path d="M129.025 158.234L211.749 172.821C215.012 173.396 218.124 171.217 218.699 167.954L219.394 164.015C218.819 167.278 215.707 169.457 212.443 168.882L129.719 154.295C126.456 153.72 124.277 150.608 124.853 147.344L124.158 151.284C123.583 154.547 125.762 157.659 129.025 158.234Z" fill="#E5E5EB"/>
<path d="M212.443 168.882L129.719 154.295L128.33 162.174L211.054 176.76L212.443 168.882ZM129.719 154.295C128.632 154.103 127.905 153.066 128.097 151.978L120.219 150.589C119.26 156.028 122.891 161.215 128.33 162.174L129.719 154.295ZM214.76 167.259C214.568 168.347 213.531 169.073 212.443 168.882L211.054 176.76C216.493 177.719 221.68 174.087 222.639 168.649L214.76 167.259ZM213.138 164.942L130.414 150.356L129.025 158.234L211.749 172.821L213.138 164.942ZM130.414 150.356C129.326 150.164 128.6 149.127 128.792 148.039L120.913 146.65C119.954 152.089 123.586 157.275 129.025 158.234L130.414 150.356ZM215.455 163.32C215.263 164.408 214.226 165.134 213.138 164.942L211.749 172.821C217.188 173.78 222.374 170.148 223.333 164.709L215.455 163.32ZM128.097 151.978L128.792 148.039L120.913 146.65L120.219 150.589L128.097 151.978ZM222.639 168.649L223.333 164.709L215.455 163.32L214.76 167.259L222.639 168.649Z" fill="#E5E5EB" mask="url(#path-4-inside-1_1795_12560)"/>
</g>
<g filter="url(#filter1_d_1795_12560)">
<path d="M64.1581 63.7162C63.5827 60.4529 65.7617 57.3409 69.0251 56.7655L111.026 49.3597C115.699 48.5356 120.514 49.4003 124.609 51.7993L155.582 69.9453C160.644 72.9113 164.149 77.9507 165.168 83.7289L178.843 161.284C179.418 164.547 177.239 167.659 173.976 168.234L91.252 182.821C87.9887 183.396 84.8767 181.217 84.3013 177.954L64.1581 63.7162Z" fill="#FCFCFD"/>
<path d="M173.837 167.447L91.1131 182.033C88.2849 182.532 85.5878 180.643 85.0891 177.815L64.9459 63.5773C64.4472 60.7491 66.3357 58.052 69.164 57.5533L111.165 50.1475C115.651 49.3564 120.273 50.1865 124.204 52.4895L155.177 70.6356C160.037 73.4829 163.402 78.3207 164.38 83.8678L178.055 161.423C178.554 164.251 176.665 166.948 173.837 167.447Z" stroke="#E5E5EB" stroke-width="1.6"/>
<path d="M116.065 50.9617C115.296 50.385 114.314 49.9219 113.3 49.8665L113.287 49.7942C116.662 49.3769 120.09 50.0795 123.038 51.8064L156.255 71.2669C160.2 73.5785 162.999 77.4169 164.005 81.8535L163.931 81.8665C163.533 80.9324 162.761 80.1679 161.956 79.6421C160.948 78.9834 159.668 78.5566 158.602 78.7445L128.664 84.0234C125.836 84.5221 123.139 82.6336 122.64 79.8053L118.056 53.8064C117.868 52.741 117.029 51.684 116.065 50.9617Z" fill="#F2F4F8" stroke="#E5E5EB" stroke-width="1.6"/>
<mask id="path-9-inside-2_1795_12560" fill="white">
<path d="M91.2518 182.821L173.976 168.234C177.239 167.659 179.418 164.547 178.843 161.284L178.148 157.344C178.723 160.608 176.544 163.72 173.281 164.295L90.5572 178.882C87.2938 179.457 84.1819 177.278 83.6064 174.015L84.301 177.954C84.8765 181.217 87.9884 183.396 91.2518 182.821Z"/>
</mask>
<path d="M91.2518 182.821L173.976 168.234C177.239 167.659 179.418 164.547 178.843 161.284L178.148 157.344C178.723 160.608 176.544 163.72 173.281 164.295L90.5572 178.882C87.2938 179.457 84.1819 177.278 83.6064 174.015L84.301 177.954C84.8765 181.217 87.9884 183.396 91.2518 182.821Z" fill="#E5E5EB"/>
<path d="M173.281 164.295L90.5572 178.882L91.9464 186.76L174.67 172.174L173.281 164.295ZM90.5572 178.882C89.4694 179.073 88.4321 178.347 88.2403 177.259L80.3618 178.648C81.3208 184.087 86.5074 187.719 91.9464 186.76L90.5572 178.882ZM174.903 161.978C175.095 163.066 174.369 164.103 173.281 164.295L174.67 172.174C180.109 171.215 183.741 166.028 182.782 160.589L174.903 161.978ZM172.586 160.356L89.8626 174.942L91.2518 182.821L173.976 168.234L172.586 160.356ZM89.8626 174.942C88.7748 175.134 87.7375 174.408 87.5457 173.32L79.6672 174.709C80.6262 180.148 85.8128 183.78 91.2518 182.821L89.8626 174.942ZM174.209 158.039C174.401 159.127 173.674 160.164 172.586 160.356L173.976 168.234C179.415 167.275 183.046 162.089 182.087 156.65L174.209 158.039ZM88.2403 177.259L87.5457 173.32L79.6672 174.709L80.3618 178.648L88.2403 177.259ZM182.782 160.589L182.087 156.65L174.209 158.039L174.903 161.978L182.782 160.589Z" fill="#E5E5EB" mask="url(#path-9-inside-2_1795_12560)"/>
</g>
<defs>
<filter id="filter0_d_1795_12560" x="59.1162" y="-0.862793" width="244.769" height="270.726" filterUnits="userSpaceOnUse" color-interpolation-filters="sRGB">
<feFlood flood-opacity="0" result="BackgroundImageFix"/>
<feColorMatrix in="SourceAlpha" type="matrix" values="0 0 0 0 0 0 0 0 0 0 0 0 0 0 0 0 0 0 127 0" result="hardAlpha"/>
<feOffset dy="32"/>
<feGaussianBlur stdDeviation="32"/>
<feComposite in2="hardAlpha" operator="out"/>
<feColorMatrix type="matrix" values="0 0 0 0 0 0 0 0 0 0 0 0 0 0 0 0 0 0 0.02 0"/>
<feBlend mode="normal" in2="BackgroundImageFix" result="effect1_dropShadow_1795_12560"/>
<feBlend mode="normal" in="SourceGraphic" in2="effect1_dropShadow_1795_12560" result="shape"/>
</filter>
<filter id="filter1_d_1795_12560" x="-0.883789" y="9.13721" width="244.769" height="270.726" filterUnits="userSpaceOnUse" color-interpolation-filters="sRGB">
<feFlood flood-opacity="0" result="BackgroundImageFix"/>
<feColorMatrix in="SourceAlpha" type="matrix" values="0 0 0 0 0 0 0 0 0 0 0 0 0 0 0 0 0 0 127 0" result="hardAlpha"/>
<feOffset dy="32"/>
<feGaussianBlur stdDeviation="32"/>
<feComposite in2="hardAlpha" operator="out"/>
<feColorMatrix type="matrix" values="0 0 0 0 0 0 0 0 0 0 0 0 0 0 0 0 0 0 0.02 0"/>
<feBlend mode="normal" in2="BackgroundImageFix" result="effect1_dropShadow_1795_12560"/>
<feBlend mode="normal" in="SourceGraphic" in2="effect1_dropShadow_1795_12560" result="shape"/>
</filter>
</defs>
</svg>
